assets/icons/delete.svg

<svg xmlns="http://www.w3.org/2000/svg" viewBox="0 0 24 24" role="presentation" aria-hidden="true"><path fill-rule="evenodd" clip-rule="evenodd" d="M4.5 7.18045C4.5 6.75988 4.84094 6.41895 5.2615 6.41895H19.2384C19.659 6.41895 19.9999 6.75988 19.9999 7.18045C19.9999 7.60101 19.659 7.94195 19.2384 7.94195H5.2615C4.84094 7.94195 4.5 7.60101 4.5 7.18045Z" fill="currentColor"/><path fill-rule="evenodd" clip-rule="evenodd" d="M10.6658 5.05035C10.4414 5.05035 10.23 5.13736 10.0773 5.2861C9.92529 5.43417 9.8437 5.63064 9.8437 5.83113V6.61191H14.6551V5.83113C14.6551 5.63064 14.5735 5.43417 14.4214 5.2861C14.2687 5.13736 14.0574 5.05035 13.833 5.05035H10.6658ZM16.1781 6.61191V5.83113C16.1781 5.21353 15.926 4.62544 15.484 4.19504C15.0428 3.7653 14.4485 3.52734 13.833 3.52734H10.6658C10.0502 3.52734 9.45597 3.7653 9.01472 4.19504C8.5728 4.62544 8.3207 5.21353 8.3207 5.83113V6.61191H6.70681C6.28625 6.61191 5.94531 6.95284 5.94531 7.37341V18.1694C5.94531 18.787 6.19741 19.3751 6.63934 19.8055C7.08058 20.2352 7.67485 20.4732 8.29041 20.4732H16.2084C16.8239 20.4732 17.4182 20.2352 17.8594 19.8055C18.3014 19.3751 18.5535 18.787 18.5535 18.1694V7.37341C18.5535 6.95284 18.2125 6.61191 17.792 6.61191H16.1781ZM7.46831 8.13491V18.1694C7.46831 18.3699 7.5499 18.5663 7.70194 18.7144C7.85466 18.8631 8.06597 18.9502 8.29041 18.9502H16.2084C16.4328 18.9502 16.6441 18.8631 16.7968 18.7144C16.9489 18.5663 17.0305 18.3699 17.0305 18.1694V8.13491H7.46831Z" fill="currentColor"/><path fill-rule="evenodd" clip-rule="evenodd" d="M10.5633 10.2744C10.9838 10.2744 11.3248 10.6153 11.3248 11.0359V15.8555C11.3248 16.2761 10.9838 16.617 10.5633 16.617C10.1427 16.617 9.80176 16.2761 9.80176 15.8555V11.0359C9.80176 10.6153 10.1427 10.2744 10.5633 10.2744Z" fill="currentColor"/><path fill-rule="evenodd" clip-rule="evenodd" d="M13.9373 10.2744C14.3578 10.2744 14.6988 10.6153 14.6988 11.0359V15.8555C14.6988 16.2761 14.3578 16.617 13.9373 16.617C13.5167 16.617 13.1758 16.2761 13.1758 15.8555V11.0359C13.1758 10.6153 13.5167 10.2744 13.9373 10.2744Z" fill="currentColor"/></svg>

<svg xmlns="http://www.w3.org/2000/svg" aria-hidden="true" viewBox="0 0 24 24"><path fill="currentColor" fill-rule="evenodd" d="M4.5 7.18c0-.42.34-.761.761-.761h13.977a.761.761 0 1 1 0 1.523H5.262A.76.76 0 0 1 4.5 7.18" clip-rule="evenodd"/><path fill="currentColor" fill-rule="evenodd" d="M10.666 5.05a.84.84 0 0 0-.589.236.76.76 0 0 0-.233.545v.78h4.811v-.78a.76.76 0 0 0-.234-.545.84.84 0 0 0-.588-.236zm5.512 1.562v-.78c0-.618-.252-1.207-.694-1.637a2.37 2.37 0 0 0-1.651-.668h-3.167c-.616 0-1.21.238-1.651.668a2.28 2.28 0 0 0-.694 1.636v.78H6.707a.763.763 0 0 0-.762.762V18.17c0 .618.252 1.206.694 1.636s1.036.668 1.651.668h7.918c.616 0 1.21-.238 1.651-.668s.694-1.018.694-1.636V7.373a.76.76 0 0 0-.761-.761zm-8.71 1.523v10.034c0 .2.082.397.234.545a.84.84 0 0 0 .588.236h7.918a.84.84 0 0 0 .589-.236.76.76 0 0 0 .233-.545V8.135z" clip-rule="evenodd"/><path fill="currentColor" fill-rule="evenodd" d="M10.563 10.274c.42 0 .762.341.762.762v4.82a.762.762 0 0 1-1.523 0v-4.82c0-.42.34-.762.761-.762m3.374 0c.42 0 .762.341.762.762v4.82a.762.762 0 0 1-1.523 0v-4.82c0-.42.34-.762.761-.762" clip-rule="evenodd"/></svg>
